src/main/resources/icons/PhpIcons/icons/show_empty_superglobals_dark.svg

<svg xmlns="http://www.w3.org/2000/svg" width="16" height="16" viewBox="0 0 16 16">
  <g fill="none" fill-rule="evenodd">
    <path fill="#AFB1B3" d="M3.14814798,5 L2.37319155,5 L2.37319155,2.02243951 L1.44807055,2.3093611 L1.44807055,1.67920622 L3.06502116,1.10000002 L3.14814798,1.10000002 L3.14814798,5 Z M3.94187498,10.0021262 L1.26572786,10.0021262 L1.26572786,9.47118715 L2.52871913,8.12506906 C2.6234663,8.02138348 2.70346389,7.92663774 2.76871429,7.84082898 C2.8339647,7.75502023 2.88670054,7.67636339 2.92692339,7.60485609 C2.96714624,7.5333488 2.99574873,7.46675863 3.01273172,7.40508359 C3.0297147,7.34340854 3.03820606,7.283969 3.03820606,7.22676316 C3.03820606,7.05335797 2.9944085,6.91704923 2.90681206,6.81783286 C2.81921563,6.71861649 2.69407974,6.66900905 2.53140064,6.66900905 C2.44022884,6.66900905 2.35933743,6.68554486 2.28872398,6.71861699 C2.21811052,6.75168911 2.15911789,6.79727433 2.11174431,6.85537401 C2.06437072,6.91347368 2.0281707,6.98274533 2.00314315,7.06319104 C1.97811559,7.14363675 1.965602,7.23123187 1.965602,7.32597904 L1.18796406,7.32597904 C1.18796406,7.15078616 1.21924803,6.98542802 1.28181692,6.82989966 C1.3443858,6.67437129 1.4346624,6.53850947 1.55264944,6.42231012 C1.67063648,6.30611076 1.81320201,6.2140465 1.98035031,6.14611457 C2.14749861,6.07818264 2.33564936,6.04421719 2.54480819,6.04421719 C2.75039167,6.04421719 2.93228562,6.06969128 3.09049551,6.12064023 C3.2487054,6.17158917 3.38143882,6.24443614 3.48869977,6.3391833 C3.59596071,6.43393047 3.67729904,6.55012808 3.73271719,6.68777962 C3.78813534,6.82543116 3.815844,6.98006337 3.815844,7.15168088 C3.815844,7.28218169 3.79528597,7.40821141 3.75416927,7.52977381 C3.71305258,7.65133621 3.65495377,7.77289679 3.57987111,7.89445919 C3.50478845,8.01602159 3.41406493,8.13892291 3.30769783,8.26316683 C3.20133073,8.38741076 3.08289855,8.51656887 2.95239774,8.65064505 L2.26324963,9.3773343 L3.94187498,9.3773343 L3.94187498,10.0021262 Z M2.05409184,12.6992378 L2.4670444,12.6992378 C2.66368946,12.6992378 2.80938339,12.6500773 2.90413055,12.5517548 C2.99887772,12.4534322 3.04625059,12.3229334 3.04625059,12.1602543 C3.04625059,12.088747 3.03552466,12.0221568 3.01407247,11.9604818 C2.99262028,11.8988067 2.95999557,11.8460709 2.91619735,11.8022727 C2.87239913,11.7584745 2.81742872,11.7240621 2.75128448,11.6990345 C2.68514023,11.674007 2.60737721,11.6614934 2.51799309,11.6614934 C2.4464858,11.6614934 2.3790018,11.6717724 2.31553908,11.6923308 C2.25207635,11.7128891 2.19665903,11.7419385 2.14928545,11.7794798 C2.10191187,11.8170212 2.0643711,11.8630533 2.03666202,11.9175776 C2.00895295,11.9721019 1.99509861,12.0333291 1.99509861,12.1012611 L1.22014218,12.1012611 C1.22014218,11.9403696 1.25366072,11.7942288 1.32069881,11.6628341 C1.3877369,11.5314395 1.47890734,11.419711 1.59421285,11.3276454 C1.70951836,11.2355797 1.84493327,11.1640735 2.00046164,11.1131246 C2.15599,11.0621756 2.32224197,11.0367015 2.49922252,11.0367015 C2.69586758,11.0367015 2.87508005,11.060388 3.03686531,11.1077615 C3.19865056,11.1551351 3.33764078,11.2257475 3.45384013,11.3196009 C3.57003949,11.4134542 3.66031609,11.5296518 3.72467266,11.6681972 C3.78902922,11.8067426 3.82120702,11.9671846 3.82120702,12.1495282 C3.82120702,12.2335493 3.80824652,12.3166753 3.78232513,12.3989087 C3.75640373,12.4811421 3.71796914,12.5584582 3.66702019,12.6308593 C3.61607124,12.7032604 3.55395021,12.7702975 3.48065524,12.8319726 C3.40736026,12.8936476 3.32334045,12.9459365 3.22859328,12.9888409 C3.44847821,13.0674989 3.61249561,13.1854842 3.72065039,13.3428003 C3.82880518,13.5001163 3.88288176,13.6860325 3.88288176,13.9005544 C3.88288176,14.082898 3.84757556,14.2455746 3.77696211,14.3885892 C3.70634865,14.5316038 3.60936834,14.6518236 3.48601826,14.7492523 C3.36266817,14.846681 3.21652733,14.9208687 3.04759135,14.9718177 C2.87865536,15.0227666 2.69586758,15.0482407 2.49922252,15.0482407 C2.33296806,15.0482407 2.17029141,15.025895 2.01118768,14.981203 C1.85208394,14.9365109 1.71041224,14.8676862 1.58616832,14.7747267 C1.46192439,14.6817672 1.36181568,14.5651227 1.28583918,14.4247896 C1.20986268,14.2844565 1.171875,14.1177577 1.171875,13.924688 L1.94683143,13.924688 C1.94683143,13.9979829 1.96113268,14.06502 1.98973559,14.1258012 C2.01833851,14.1865824 2.05811385,14.2388713 2.1090628,14.2826696 C2.16001174,14.3264678 2.22034512,14.3608802 2.29006473,14.3859077 C2.35978434,14.4109353 2.4357597,14.4234488 2.51799309,14.4234488 C2.60916489,14.4234488 2.69139705,14.4109353 2.76469203,14.3859077 C2.837987,14.3608802 2.90010803,14.3246801 2.95105698,14.2773065 C3.00200593,14.229933 3.04088744,14.1736218 3.06770267,14.1083714 C3.09451791,14.043121 3.10792533,13.970274 3.10792533,13.8898283 C3.10792533,13.7861427 3.09317717,13.6972069 3.06368041,13.6230181 C3.03418365,13.5488292 2.99172683,13.4884959 2.93630868,13.4420161 C2.88089052,13.3955364 2.81340653,13.361124 2.73385466,13.338778 C2.65430279,13.316432 2.56536693,13.3052591 2.4670444,13.3052591 L2.05409184,13.3052591 L2.05409184,12.6992378 Z"/>
    <polygon fill="#3592C4" points="6 3 14 3 14 5 6 5"/>
    <polygon fill="#3592C4" points="6 11 14 11 14 13 6 13"/>
    <polygon fill="#3592C4" points="6 7 14 7 14 9 6 9"/>
  </g>
</svg>

<svg xmlns="http://www.w3.org/2000/svg" width="16" height="16" viewBox="0 0 16 16"><rect id="frame" width="16" height="16" fill="none"/><g fill="none" fill-rule="evenodd"><path fill="#AFB1B3" d="M3.148 5h-.775V2.022l-.925.287v-.63L3.065 1.1h.083V5zm.794 5.002H1.266v-.53l1.263-1.347c.094-.104.174-.198.24-.284a2.09 2.09 0 0 0 .158-.236.902.902 0 0 0 .086-.2.67.67 0 0 0 .025-.178c0-.174-.044-.31-.131-.41-.088-.098-.213-.148-.376-.148a.566.566 0 0 0-.242.05.497.497 0 0 0-.177.136.613.613 0 0 0-.109.208.88.88 0 0 0-.037.263h-.778c0-.175.031-.34.094-.496.062-.156.153-.291.27-.408.119-.116.261-.208.428-.276.167-.068.356-.102.565-.102.205 0 .387.026.545.077.159.05.291.123.399.218.107.095.188.211.244.349.055.137.083.292.083.464 0 .13-.02.256-.062.378-.04.121-.099.243-.174.364a2.97 2.97 0 0 1-.272.37 8.26 8.26 0 0 1-.356.387l-.689.726h1.679v.625zM2.054 12.7h.413c.197 0 .342-.049.437-.147a.54.54 0 0 0 .142-.392.604.604 0 0 0-.032-.2.411.411 0 0 0-.263-.261.658.658 0 0 0-.233-.038.653.653 0 0 0-.202.031.526.526 0 0 0-.167.087.4.4 0 0 0-.154.322H1.22a.95.95 0 0 1 .1-.438c.068-.132.159-.243.274-.335.116-.092.25-.164.406-.215.156-.05.322-.076.5-.076.196 0 .375.023.537.07.162.048.3.119.417.213.116.093.206.21.27.348.065.139.097.3.097.482a.825.825 0 0 1-.154.48 1.062 1.062 0 0 1-.438.359.97.97 0 0 1 .492.354.96.96 0 0 1 .162.558 1.04 1.04 0 0 1-.397.849c-.123.097-.27.17-.438.222a1.891 1.891 0 0 1-1.037.01 1.28 1.28 0 0 1-.425-.207 1.063 1.063 0 0 1-.3-.35 1.036 1.036 0 0 1-.114-.5h.775a.466.466 0 0 0 .162.358.57.57 0 0 0 .181.103.76.76 0 0 0 .475 0 .474.474 0 0 0 .303-.278.722.722 0 0 0-.004-.485.446.446 0 0 0-.128-.181.536.536 0 0 0-.202-.103.986.986 0 0 0-.267-.034h-.413V12.7z"/><path fill="#3592C4" d="M6 3h8v2H6z"/><path fill="#3592C4" d="M6 11h8v2H6z"/><path fill="#3592C4" d="M6 7h8v2H6z"/></g></svg>
